X:1
T:Westwood, 76.76 D
T:Westwood, 76.76 D
T:Robert Hyslop McCartney, 1894
T:Public Domain Courtesy of the Cyber Hymnal™
C:Robert Hyslop McCartney, 1894
Z:Public Domain
Z:Courtesy of the Cyber Hymnal™
%%score ( 1 2 ) ( 3 4 )
L:1/8
Q:1/4=110
M:none
K:G
V:1 treble 
V:2 treble 
V:3 bass 
V:4 bass 
V:1
 [DB]2 | [Ec]2 [DB]2 [CE]2 B2 | [EB]4 [EA]2 [EG]2 | [CF]2 [CE]2 [CD]2 [CE]2 | [B,D]6 [DB]2 | %5
 [Cc]2 [DB]2 E2 [DB]2 | [^CB]4 [DA]2 [EG]2 | [DF]2 [DB]2 [DA]2 [A,^C]2 | [A,D]6 [DE]2 | %9
 [DF]2 [Ec]2 [DB]2 [CA]2 | D4 [DG]2 [DA]2 | [DB]2 [=Fd]2 [Ec]2 [DB]2 | [CA]6 [Dc]2 | %13
 [DB]2 [CA]2 [B,G]2 [^DF]2 | (E2 B2) [EA]2 [EG]2 | [CF]2 [CE]2 [CF]2 [CD]2 | [B,G]6 |] %17
V:2
 x2 | x6 (B,D) | x8 | x8 | x8 | x4 E2 x2 | x8 | x8 | x8 | x8 | (C2 B,2) x4 | x8 | x8 | x8 | E4 x4 | %15
 x8 | x6 |] %17
V:3
 [G,,G,]2 | [G,,G,]2 [G,,G,]2 [G,,G,]2 G,2 | [C,G,]4 [C,C]2 [A,,C]2 | %3
 [D,A,]2 [D,G,]2 [D,F,]2 [D,F,]2 | [G,,G,]6 [G,,G,]2 | [E,G,]2 [D,G,]2 [C,G,]2 [E,^G,]2 | %6
 (A,2 G,2) [B,,F,]2 [^C,A,]2 | [D,A,]2 [^G,,^E,]2 [A,,F,]2 [A,,F,]2 | [D,F,]6 [D,G,]2 | %9
 [D,A,]2 [D,F,]2 [E,G,]2 [F,A,]2 | G,4 [G,B,]2 [=F,A,]2 | [E,^G,]2 [E,G,]2 [F,A,]2 [G,B,]2 | %12
 [A,C]6 [F,A,]2 | G,2 [^D,F,]2 [E,G,]2 [B,,A,]2 | (G,2 ^G,2) [=C,A,]2 [^C,A,]2 | %15
 [D,A,]2 [D,G,]2 [D,A,]2 [D,F,]2 | [G,,G,]6 |] %17
V:4
 x2 | x6 (G,,B,,) | x8 | x8 | x8 | x8 | A,,4 x4 | x8 | x8 | x8 | G,4 x4 | x8 | x8 | G,2 x6 | %14
 ^C,4 x4 | x8 | x6 |] %17

